!!!!SEGMENT: pl-kk--kk-i-242--002_anonim--rorate-caeli.krn
!!!cenid: 16xx:1960
!!!COM: Anonim
!!!COM-rismID: pe30004985
!!!CDT:
!!!CNT:
!!!OTL: Rorate caeli
!!!PDT:
!!!AGN: Sacred
!!!YEC: Copyright 2022 Narodowy Instytut Fryderyka Chopina (https://polishscores.org)
!!!YEM: License CC-BY-4.0 (https://creativecommons.org/licenses/by/4.0)
!!!SMS-siglum: PL-Kk
!!!SMS-shelfmark: Kk.I.242
!!!SMS-variant:
!!!SMS-altvar:
!!!SMS-shelfwork: 002 W
!!!NIFC-rismSourceID: 1001150847
!!!NIFC-rismChildID: 1001150853
!!!NIFC-islandoraID: pl-kk:4478
!!!URL-pdf-islandora: https://repozytorium.nifc.pl/islandora/object/pl-kk:4478/datastream/PDF/view
!!!URL-scan: https://polish.musicsources.pl/pl/lokalizacje/galeria/rekopisy/5862/9 @EN{Scan on Polish Music Sources Website} @PL{Skany w portalu Dziedzictwo Muzyki Polskiej w otwartym dostępie}
!!!IIIF:
!!!ONB-nifc: UWAGA: CATBBrip (należy uwzględnić również B rip). Kolejne utwory oznaczone w źródle cyframi.
!!!OMD:
!!!AIN: 1 alto 2 bass 1 canto 1 tenor
!!!key: g
**kern	**text	**kern	**text	**kern	**text	**kern	**text	**kern	**text
*part5	*part5	*part4	*part4	*part3	*part3	*part2	*part2	*part1	*part1
*staff5	*staff5	*staff4	*staff4	*staff3	*staff3	*staff2	*staff2	*staff1	*staff1
*I"Baſso Ripieno.	*	*I"Baſso.	*	*I"Tenore.	*	*I"Alto.	*	*I"Canto.	*
*I'B rip	*	*I'B	*	*I'T	*	*I'A	*	*I'S	*
*Ibass	*	*Ibass	*	*Itenor	*	*Ialto	*	*Icanto	*
*ICvox	*	*ICvox	*	*ICvox	*	*ICvox	*	*ICvox	*
*clefF4	*	*clefF4	*	*clefC4	*	*clefC3	*	*clefC1	*
*k[b-]	*	*k[b-]	*	*k[b-]	*	*k[b-]	*	*k[b-]	*
*g:	*	*g:	*	*g:	*	*g:	*	*g:	*
*M2/2	*	*M2/2	*	*M2/2	*	*M2/2	*	*M2/2	*
*met(c|)	*	*met(c|)	*	*met(c|)	*	*met(c|)	*	*met(c|)	*
=1	=1	=1	=1	=1	=1	=1	=1	=1	=1
!	!	!LO:TX:a:t=1.	!	!LO:TX:a:t=ſ.	!	!LO:TX:a:t=4.	!	!LO:TX:a:t=6.	!
1r	.	1r	.	1G	Ro-	00r	.	00r	.
=2	=2	=2	=2	=2	=2	=2	=2	=2	=2
*2\right	*	*	*	*	*	*	*	*	*
!	!	!	!	!LO:TX:a:t=P:problem=♮ above	!	!	!	!	!
2D\	Ro-	2D/	Ro-	4Fn/	-ra-	.	.	.	.
.	.	.	.	4F/	-te	.	.	.	.
*	*	*	*	*2\right	*	*	*	*	*
4D\	-ra-	4D/	-ra-	[2B-\	Cae-	.	.	.	.
4D\	-te	4D/	-te	.	.	.	.	.	.
=3	=3	=3	=3	=3	=3	=3	=3	=3	=3
4C/	cae-	4C/	Cae-	2B-\]	.	.	.	.	.
4C/	-li	4C/	-li	.	.	.	.	.	.
*	*	*2\right	*	*	*	*	*	*	*
[<2F\	Cae-	[<2F\	Cae-	2A/	-li	.	.	.	.
=4	=4	=4	=4	=4	=4	=4	=4	=4	=4
2F\]	.	2F\]	.	2.G/	de-	.	.	.	.
2En\	-li	2E\	-li	.	.	.	.	.	.
.	.	.	.	4G/	-su-	.	.	.	.
=5	=5	=5	=5	=5	=5	=5	=5	=5	=5
*	*	*2\left	*	*	*	*2\right	*	*	*
2.D\	de-	2.D\	de-	2F/	-per	2d\	Ro-	0r	.
.	.	.	.	2B-\	de-	4d\	-ra-	.	.
4E\	-su-	4E\	.	.	.	4d\	-te	.	.
=6	=6	=6	=6	=6	=6	=6	=6	=6	=6
*	*	*2\right	*	*	*	*	*	*	*
2F,<\	-per	2F\	.	2.A/	.	4c/	Cae-	.	.
.	.	.	.	.	.	4c/	-li	.	.
*	*ij	*	*	*	*	*	*	*	*
2D\	de-	2D/	.	.	.	[<2f\	Cae-	.	.
.	.	.	.	4Bn\	.	.	.	.	.
=7	=7	=7	=7	=7	=7	=7	=7	=7	=7
2.C/	-su-	2.C/	.	2.c\	.	2f\]	.	2g/	Ro-
.	.	.	.	.	.	2e\	-li	4g/	-ra-
4C/	.	4C/	-su-	4c\	-su-	.	.	4g/	-te
=8	=8	=8	=8	=8	=8	=8	=8	=8	=8
2D,\	-per	2D,</	-per	1F	-per	2.d\	de-	4f/	Cae-
*	*Xij	*	*	*	*	*	*	*	*
.	.	.	.	.	.	.	.	4f/	-li
*	*	*	*	*	*	*	*	*2\right	*
2BB-/	Ro-	2BB-/	Ro-	.	.	.	.	[<2b-\	Cae-
.	.	.	.	.	.	4d\	-su-	.	.
=9	=9	=9	=9	=9	=9	=9	=9	=9	=9
!	!	!	!	!LO:TX:a:t=1.	!	!	!	!	!
4F\	-ra-	4F\	-ra-	1r	.	1c	-per	2b-\]	.
4C/	-te	4C/	-te	.	.	.	.	.	.
1F\	cae-	[<2F\	cae-	.	.	.	.	2a\	-li
!	!	!LO:LB:g=original	!	!	!	!	!	!	!
=10	=10	=10	=10	=10	=10	=10	=10	=10	=10
.	.	2F\]	.	1G	ro-	1c	de-	2.g/	de
2E-X\	-li	2E-X\	-li	.	.	.	.	.	.
.	.	.	.	.	.	.	.	4g/	su-
=11	=11	=11	=11	=11	=11	=11	=11	=11	=11
2D/	de-	2D/	de-	4A/	-ra-	1d	.	2f#X/	-per
.	.	.	.	4A/	-te	.	.	.	.
!	!	!	!	!LO:TX:a:t=P:problem=♭ above	!	!	!	!	!
2GG/	.	2GG/	.	4B-X\	Cae-	.	.	[2g/	de-
.	.	.	.	4B-\	-li	.	.	.	.
*custos:D	*	*	*	*	*	*	*	*	*
!LO:LB:g=original	!	!	!	!	!	!	!	!	!
=12	=12	=12	=12	=12	=12	=12	=12	=12	=12
2.D\	.	2.D/	.	2.A/	de-	2d\	.	2g/]	.
.	.	.	.	.	.	2d\	-su-	4f#X/	.
4D\	-su-	4D/	-su-	4A/	-su-	.	.	4f#/	-su-
!	!	!	!	!LO:LB:g=original	!	!	!	!	!
=13	=13	=13	=13	=13	=13	=13	=13	=13	=13
2GG,</	-per,	2GG,</	-per	2Bn,<\	-per	2d\	-per	1g	-per
2E-X\	et	2E-X\	et	2G/	et	2r	.	.	.
=14	=14	=14	=14	=14	=14	=14	=14	=14	=14
4D\	nu-	4D/	nu-	4Fn/	nu-	1r	.	0r	.
4D\	-bes	4D/	-bes	4F/	-bes	.	.	.	.
1G\	Nu-	[<2G\	nu-	2B-X\	plu-	.	.	.	.
=15	=15	=15	=15	=15	=15	=15	=15	=15	=15
.	.	2G\]	.	2A,</	-an	1d	et	.	.
2F\	-bes	2F\	-bes	4A/	plu-	.	.	.	.
.	.	.	.	(8G/L	.	.	.	.	.
.	.	.	.	8F/J)	.	.	.	.	.
=16	=16	=16	=16	=16	=16	=16	=16	=16	=16
4En\	plu-	4En\	plu-	4G/	.	4c/	nu-	1r	.
4F\	-ant	4F\	-ant	4A/	-ant	4c/	-bes	.	.
2D/	Jus-	2D/	juſ-	2F/	juſ-	[<2f\	nu-	.	.
!	!	!	!	!	!	!LO:LB:g=original	!	!	!
=17	=17	=17	=17	=17	=17	=17	=17	=17	=17
!	!	!	!	!	!	!LO:TX:t=P:problem=brak zakończenia łuku	!	!	!
2C,</	-tu(m)	2C/	-tum	2G,</	-tum	2f\]	.	1g	et
2C/	et	2C/	et	2c\	et	2e\	-bes	.	.
!	!	!	!	!	!	!	!	!LO:LB:g=original	!
=18	=18	=18	=18	=18	=18	=18	=18	=18	=18
!	!	!	!	!	!	!	!	!LO:TX:a:t=P:problem=♮ above	!
2D/	nu-	2D/	nu-	2A/	nu-	4.d\	plu-	4fn/	nu-
.	.	.	.	.	.	.	.	4f/	-be
.	.	.	.	.	.	8e\	.	.	.
2BB-/	-bes	2BB-/	-bes	2d\	-bes	[<2f\	.	[<2b-\	nu-
=19	=19	=19	=19	=19	=19	=19	=19	=19	=19
1F	nu-	1FF	nu-	1c	nu-	4f\]	.	2b-\]	.
.	.	.	.	.	.	4c/	-ant	.	.
.	.	.	.	.	.	2f\	Juſ-	2a\	-bes
=20-	=20	=20	=20	=20	=20	=20	=20	=20	=20
2G\	-bes	2GG/	-bes	2B-\	-bes	2d\	-tum	1g	plu-
2C/	plu-	2C/	plu-	[<2c\	plu-	[<2e-X\	plu-	.	.
=21	=21	=21	=21	=21	=21	=21	=21	=21	=21
2AA/	-ant	2AA/	.	2c\]	.	2e-\]	.	1f	-ant
2BB-/	Ju-	2BB-/	-ant	2B-\	-ant	2d\	-ant	.	.
=22	=22	=22	=22	=22	=22	=22	=22	=22	=22
2F\	.	2F\	Ju-	2B-\	ju-	1c	juſ-	1f	Juſ-
2FF/	.	2FF/	.	2A/	-stu(m),	.	.	.	.
=23	=23	=23	=23	=23	=23	=23	=23	=23	=23
1BB-	-stum	1BB-	-stum	1B-	a-	1d	-tum	1f	-tum
!	!	!LO:LB:g=original	!	!	!	!	!	!	!
=24	=24	=24	=24	=24	=24	=24	=24	=24	=24
!	!	!LO:TX:a:t=3	!	!LO:TX:a:t=ſ.	!	!LO:TX:a:t=ſ.	!	!	!
0r	.	0r	.	2B-\	-pe-	2d\	a-	00r	.
.	.	.	.	4B-\	-ri-	4d\	-pe-	.	.
.	.	.	.	4B-\	-a-	4d\	-ri-	.	.
=25	=25	=25	=25	=25	=25	=25	=25	=25	=25
.	.	.	.	4A/	-tur	4c/	-a-	.	.
.	.	.	.	4A/	.	4c/	-tur	.	.
.	.	.	.	[<2d\	ter-	2f\	ter-	.	.
!	!	!	!	!LO:LB:g=original	!	!	!	!	!
=26	=26	=26	=26	=26	=26	=26	=26	=26	=26
!LO:TX:b:t=Vertat(ur)	!	!	!	!LO:TX:t=P:problem=zakończenie łuku górą	!	!	!	!	!
1r	.	1r	.	2d\]	.	1en	.	.	.
.	.	.	.	2c\	.	.	.	.	.
!LO:PB:g=original	!	!	!	!	!	!	!	!	!
=27	=27	=27	=27	=27	=27	=27	=27	=27	=27
2G\	a-	2G\	a-	1B-X	.	2d\	.	.	.
4G\	-pe-	4G\	-pe-	.	.	2e\	.	.	.
4G\	-ri-	4G\	-ri-	.	.	.	.	.	.
=28	=28	=28	=28	=28	=28	=28	=28	=28	=28
4F\	-a-	4F\	-a-	2A/	-ra	1f	.	0r	.
4F\	-tur	4F\	-tur	.	.	.	.	.	.
[<2B-\	ter-	[<2B-\	ter-	2d\	ter-	.	.	.	.
=29	=29	=29	=29	=29	=29	=29	=29	=29	=29
2B-\]	.	2B-\]	.	1c	.	2e\	.	.	.
2A\	.	2A\	.	.	.	[<2f\	.	.	.
!	!	!	!	!	!	!LO:LB:g=original	!	!	!
=30	=30	=30	=30	=30	=30	=30	=30	=30	=30
!	!	!	!	!	!	!LO:TX:t=P:problem=brak zakończenia łuku	!	!	!
1G	.	1G	.	2d\	.	2f\]	.	2b-\	a-
.	.	.	.	2B-\	.	2e\	.	4b-\	-pe-
.	.	.	.	.	.	.	.	4b-\	-ri-
=31	=31	=31	=31	=31	=31	=31	=31	=31	=31
2F,<\	-ra	2F\	-ra	2c,<\	-ra	1f	-ra	4a\	-a-
.	.	.	.	.	.	.	.	4a\	-tur
2D\	et	2D/	et	(4B-\	et	.	.	[<2dd\	ter-
.	.	.	.	4A/)	ger-	.	.	.	.
=32	=32	=32	=32	=32	=32	=32	=32	=32	=32
2.E-X\	ger-	2.E-X\	ger-	2.G/	-mi-	2g\	et	2dd\]	.
.	.	.	.	.	.	2c/	.	2cc\	.
4E-\	-mi-	4E-\	-mi-	4G/	-net	.	.	.	.
=33	=33	=33	=33	=33	=33	=33	=33	=33	=33
2D,<\	-net	2D,</	-net	2F#X/	sal-	2.d\	ger-	1b-	.
[<2D\	Sal-	[2D/	sal-	4G/	-va-	.	.	.	.
.	.	.	.	4G/	-to-	4d\	-mi-	.	.
=34	=34	=34	=34	=34	=34	=34	=34	=34	=34
2D\]	.	2D/]	.	2G/	.	1d	-net	1a	-ra
2D\	-va-	2D/	-va-	2F#X/	.	.	.	.	.
=35	=35	=35	=35	=35	=35	=35	=35	=35	=35
1E-X	-to-	1E-X	-to-	1G	-rem	[1B-	sal-	2g/	a-
.	.	.	.	.	.	.	.	4g/	-pe-
.	.	.	.	.	.	.	.	4g/	-ri-
=36	=36	=36	=36	=36	=36	=36	=36	=36	=36
!	!	!	!	!LO:TX:a:t=2	!	!LO:N:vis=4B-/]:xstem	!	!	!
2D,<\	-rem	2D/	-rem	0r	.	2B-/]	.	4fn/	-a-
.	.	.	.	.	.	.	.	4f/	-tur
1G\	Sal-	[<2G\	Sal-	.	.	2B-/	-va-	2b-\	ter-
=37-	=37	=37	=37	=37	=37	=37	=37	=37	=37
.	.	2G\]	.	.	.	[1d	-to-	1a	.
2F\	-va-	2F\	-va-	.	.	.	.	.	.
!LO:LB:g=original	!	!LO:LB:g=original	!	!	!	!	!	!LO:LB:g=original	!
=38	=38	=38	=38	=38	=38	=38	=38	=38	=38
1E-X	-to-	1E-X	-to-	2G/	a-	2d\]	.	2g/	-ra
.	.	.	.	4G/	-pe-	2c/	.	2cc\	et
.	.	.	.	4G/	-ri-	.	.	.	.
=39	=39	=39	=39	=39	=39	=39	=39	=39	=39
2D/	.	2D/	.	4F#X/	-a-	1d	-rem	4.a\	ger-
.	.	.	.	4F#/	-tur	.	.	.	.
.	.	.	.	.	.	.	.	8a\	-mi-
!	!	!	!	!LO:TX:a:t=P:problem=♭ above	!	!	!	!	!
2BB-/	.	2BB-/	.	[<2B-X\	ter-	.	.	2dd\	-net
!	!	!	!	!LO:LB:g=original	!	!	!	!	!
=40	=40	=40	=40	=40	=40	=40	=40	=40	=40
!	!	!	!	!LO:TX:t=P:problem=brak zakończenia łuku	!	!LO:TX:a:t=1.	!	!	!
1F	.	1FF	.	2B-\]	.	1r	.	2cc\	Sal-
.	.	.	.	2A/	.	.	.	2cc\	-va-
=41	=41	=41	=41	=41	=41	=41	=41	=41	=41
1G	-rem.	1GG	-rem	2G/	-ra	2d\	a-	2b-\	-to-
.	.	.	.	2G/	et	4d\	-pe-	2b-\	-rem
.	.	.	.	.	.	4d\	-ri-	.	.
=42	=42	=42	=42	=42	=42	=42	=42	=42	=42
!	!	!LO:TX:a:t=2	!	!	!	!	!	!	!
0r	.	0r	.	4A/	ger-	4c/	-a-	1a	Sal-
.	.	.	.	4A/	-mi-	4c/	-tur	.	.
.	.	.	.	(4A/	-net	[<2f\	ter-	.	.
.	.	.	.	4F/)	.	.	.	.	.
=43	=43	=43	=43	=43	=43	=43	=43	=43	=43
.	.	.	.	2c\	Sal-	2f\]	.	1g	-va-
.	.	.	.	2c\	-va-	2e\	.	.	.
=44	=44	=44	=44	=44	=44	=44	=44	=44	=44
2D\	a-	2D/	a-	2F/	-to-	1d	.	2f/	-to-
4D\	-pe-	4D/	-pe-	2F/	-rem	.	.	[<2b-\	.
4D\	-ri-	4D/	-ri-	.	.	.	.	.	.
=45	=45	=45	=45	=45	=45	=45	=45	=45	=45
4C/	-a-	4C/	-a-	1r	.	2e\	-ra	2b-\]	.
4C/	-tur	4C/	-tur	.	.	.	.	.	.
[<2F\	ter-	[<2F\	ter-	.	.	2f\	et	2a\	.
=46	=46	=46	=46	=46	=46	=46	=46	=46	=46
2F\]	.	2F\]	.	2G/	a-	4.c/	ger-	2g,</	-rem
.	.	.	.	.	.	8c/	-mi-	.	.
2E-X\	.	2E-X\	.	4G/	-pe-	2c/	-net	(2g/	Sal-
.	.	.	.	4G/	-ri-	.	.	.	.
=47	=47	=47	=47	=47	=47	=47	=47	=47	=47
2D,<\	-ra	2D/	-ra	4Fn/	-a-	2d\	sal-	2b-\)	.
.	.	.	.	4F/	-tur	.	.	.	.
4D\	et	(4D/	et	[2B-\	ter-	2d\	-va-	2f/	-va-
4E-X\	.	4E-X\)	.	.	.	.	.	.	.
=48	=48	=48	=48	=48	=48	=48	=48	=48	=48
2.F\	ger-	2.F\	ger-	2B-\]	.	2c/	-to-	1f	-to-
.	.	.	.	4A\	-ra	[<2f\	.	.	.
4F\	-mi-	4F\	-mi-	4A\	et	.	.	.	.
=49-	=49	=49	=49	=49	=49	=49	=49	=49	=49
1C,<	-net	1C	-net	4G\	ger-	2f\]	.	1g	.
.	.	.	.	(8A\L	.	.	.	.	.
.	.	.	.	8B-\J)	.	.	.	.	.
.	.	.	.	4.c\	.	2e\	.	.	.
.	.	.	.	8c\	-mi-	.	.	.	.
!LO:LB:g=original	!	!	!	!	!	!	!	!	!
=50	=50	=50	=50	=50	=50	=50	=50	=50	=50
2D\	Sal-	2D/	Sal-	2A,</	-net	1d	.	2f,</	-rem
2D\	-va-	2D/	-va-	2F/	sal-	.	.	[<2b-\	Sal-
=51	=51	=51	=51	=51	=51	=51	=51	=51	=51
2C/	-to-	2C/	-to-	2G/	-va-	2e\	.	2b-\]	.
[<2F\	.	[<2F\	.	4A/	-to-	2f\	.	2a\	-va-
.	.	.	.	4F/	.	.	.	.	.
=52	=52	=52	=52	=52	=52	=52	=52	=52	=52
2F\]	.	2F\]	.	1G	.	1c	.	2g/	-to-
2E-X\	.	2E-X\	.	.	.	.	.	[<2cc\	.
!	!	!LO:LB:g=original	!	!	!	!	!	!LO:LB:g=original	!
=53	=53	=53	=53	=53	=53	=53	=53	=53	=53
!	!	!	!	!	!	!	!	!LO:TX:a:t=P:problem=zakończenie łuku górą	!
2D\	.	2D/	.	2F#X/	.	1d	.	2cc\]	.
[<2G\	.	[<2G\	.	2G/	.	.	.	2b-\	.
!	!	!	!	!LO:LB:g=original	!	!	!	!	!
=54	=54	=54	=54	=54	=54	=54	=54	=54	=54
2G\]	.	2G\]	.	2.A/	.	2.d\	.	2a\	.
2F\	.	2F\	.	.	.	.	.	[<2dd\	.
.	.	.	.	8G/L	.	8e\L	.	.	.
!	!	!	!	!	!	!LO:TX:a:t=P:problem=# above	!	!	!
.	.	.	.	8A/J	.	8f#X\J	.	.	.
=55	=55	=55	=55	=55	=55	=55	=55	=55	=55
1E-X	.	1E-X	.	2B-X\	.	1g	.	2dd\]	.
.	.	.	.	2c\	.	.	.	[<2cc\	.
=56	=56	=56	=56	=56	=56	=56	=56	=56	=56
[<1D	.	[<1D	.	[<1d	.	2f#X\	.	2cc\]	.
.	.	.	.	.	.	1g\	.	2b-\	.
=57	=57	=57	=57	=57	=57	=57	=57	=57	=57
1D]	.	1D]	.	1d]	.	.	.	1a	.
.	.	.	.	.	.	2f#X\	.	.	.
=58	=58	=58	=58	=58	=58	=58	=58	=58	=58
0GG;	-rem	0GG	-rem	0d	-rem	0g;	-rem	0bn	-rem.
=59-	=59	=59-	=59	=59-	=59	=59-	=59	=59-	=59
.	.	.	.	.	.	.	.	.	.
!LO:LB:g=original	!	!	!	!	!	!LO:LB:g=original	!	!	!
=60||	=60||	=60||	=60||	=60||	=60||	=60||	=60||	=60||	=60||
*M3/2	*	*M3/2	*	*M3/2	*	*M3/2	*	*M3/2	*
2G\	Be-	2G\	Be-	2B-X\	Be-	2d\	Be-	2g/	Be-
2G\	-ne-	2G\	-ne-	2B-\	-ne-	2d\	-ne-	2g/	-ne-
2G\	-di-	2G\	-di-	2B-\	-di-	2d\	-di-	2g/	-di-
=61	=61	=61	=61	=61	=61	=61	=61	=61	=61
1E-X	-xis-	1E-X	-xiſ-	1B-	-xiſ-	1e-X	-xiſ-	1g	-xis-
2E-\	-ti	2E-\	-ti	2B-\	-ti	2e-\	-ti	2g/	-ti
=62	=62	=62	=62	=62	=62	=62	=62	=62	=62
2A-X\	Do-	(2A-X\	Do-	(2c\	Do-	(2e-X\	Do-	(2a-X\	Do-
2B-\	.	2.B-\)	.	2.B-\)	.	2.d\)	.	2.f/)	.
2BB-/	mi-	.	.	.	.	.	.	.	.
.	.	4B-\	-mi-	4B-\	-mi-	4d\	-mi-	4f/	-mi-
=63	=63	=63	=63	=63	=63	=63	=63	=63	=63
2E-X,<\	-ne	2E-X\	-ne	2B-\	-ne	2e-X\	-ne	2g,</	-ne
2E-\	ter-	2E-\	ter-	2B-\	ter-	2e-X\	ter-	2g/	ter-
2C/	-ram	2C/	-ram	2c\	-ram	2e-\	-ram	2g/	-ram
!	!	!	!	!	!	!	!	!LO:LB:g=original	!
=64	=64	=64	=64	=64	=64	=64	=64	=64	=64
*	*ij	*	*	*	*	*	*	*	*
1AA	ter-	1AA	ter-	1c	ter-	1e-X	ter-	1f	ter-
2BB-/	-ram	2BB-/	-ram	2B-\	-ram	2d\	-ram	2f/	-ram
*	*Xij	*	*	*	*	*	*	*	*
=65	=65	=65	=65	=65	=65	=65	=65	=65	=65
1F	tu-	(1F	Tu-	(1B-	Tu-	1.c	Tu-	1.f	Tu-
2FF/	.	2FF/)	.	2A/)	.	.	.	.	.
=66	=66	=66	=66	=66	=66	=66	=66	=66	=66
2BB-,</	-am	2BB-/	-am	2B-\	-am	2d,<\	-am	2f,</	-am
!	!	!LO:PB:g=original	!	!LO:PB:g=original	!	!	!	!	!
=-	=-	=-	=-	=-	=-	=-	=-	=-	=-
2F\	a-	2F\	a-	2c\	a-	2f\	a-	2a\	a-
2F\	-ver-	2F\	-ver-	2c\	-vae-	2f\	-ver-	2a\	-ver-
=67	=67	=67	=67	=67	=67	=67	=67	=67	=67
2A\	-tiſ-	2A\	-tiſ-	2c\	-tis-	2f\	-tiſ-	2a\	-tis-
4B-,<\	-ti	4B-X\	-ti	4d\	-ti	4d\	-ti	4a\	-ti
4B-\	Cap-	4B-\	cap-	4d\	cap-	4d\	cap-	4a\	cap-
4B-\	-ti-	4B-\	-ti-	4d\	-ti-	4d\	-ti-	4g/	-ti-
4B-\	-vi-	4B-\	-vi-	4d\	-vi-	4d\	-vi-	4g/	-vi-
!LO:LB:g=original	!	!	!	!	!	!	!	!	!
=68	=68	=68	=68	=68	=68	=68	=68	=68	=68
!	!	!	!	!	!	!LO:TX:a:t=P:problem=♮ above	!	!	!
1A	-ta-	1A	-ta-	1c#X	-ta-	1en	-ta-	1a	-ta-
2AA,</	-tem	2AA/	-tem	2c#\	-tem	2e\	-tem	2a\	-tem
!	!	!	!	!	!	!LO:PB:g=original	!	!	!
=69	=69	=69	=69	=69	=69	=69	=69	=69	=69
1D	Ja-	1D	Ja-	1d	Ja-	1f	Ja-	(2a\	Ja-
.	.	.	.	.	.	.	.	2bn\)	.
2En\	.	2En\	.	[2cn\	.	2g\	.	2cc\	.
=70	=70	=70	=70	=70	=70	=70	=70	=70	=70
2F\	.	2F\	.	2c\]	.	(4f\	.	2a\	.
.	.	.	.	.	.	4e\)	.	.	.
1G	.	1G	.	2c\	.	1d	.	1g	.
.	.	.	.	2Bn\	.	.	.	.	.
=71	=71	=71	=71	=71	=71	=71	=71	=71	=71
1C,<	-cob.	1C,<	-cob	1c,<	-cob	1.e	-cob	1.g	-cob
4En\	a-	4En\	a-	4G/	a-	.	.	.	.
4E\	-ver-	4E\	-ver-	4G/	-ver-	.	.	.	.
!	!	!LO:LB:g=original	!	!	!	!	!	!	!
=72	=72	=72	=72	=72	=72	=72	=72	=72	=72
!	!	!	!	!	!	!LO:TX:a:t=ſ	!	!LO:TX:a:t=2	!
2F\	-tiſ-	2F\	-ti-	2A/	-tiſ-	4c/	a-	0.r	.
.	.	.	.	.	.	4c/	-ver-	.	.
4D,</	-ti	4D\	-sti	4F/	-ti	1d	-ti-	.	.
4C/	Cap-	4C\	cap-	4E/	cap-	.	.	.	.
4D/	-ti-	4D\	-ti-	4F/	-ti-	.	.	.	.
4BB-/	-vi-	4BB-X/	-vi-	4D/	-vi-	.	.	.	.
=73	=73	=73	=73	=73	=73	=73	=73	=73	=73
1E-X	-ta-	1E-X	-ta-	1G	-ta-	4B-X/,<	-sti	.	.
.	.	.	.	.	.	4A/	cap-	.	.
.	.	.	.	.	.	4B-/	-ti-	.	.
.	.	.	.	.	.	4G/	-vi-	.	.
2E-\	-tem	2E-\	-tem	2G/	-tem	[2c/	-ta-	.	.
!	!	!	!	!LO:LB:g=original	!	!	!	!LO:PB:g=original	!
=74	=74	=74	=74	=74	=74	=74	=74	=74	=74
2.F\	Ja-	2.F\	Ja-	2.A/	Ja-	2c/]	.	2r	.
.	.	.	.	.	.	2c,</	-tem	2r	.
4E-X\	.	4E-X\	.	4G/	.	.	.	.	.
4D/	.	4D/	.	4F/	.	[<2f\	Ja-	4a\	a-
4C/	.	4C/	.	4E/	.	.	.	4a\	-ver-
=75	=75	=75	=75	=75	=75	=75	=75	=75	=75
!	!	!	!	!	!	!LO:N:xstem	!	!	!
1BB-	.	1BB-	.	1D	.	4f\]	.	2b-\	-tiſ-
.	.	.	.	.	.	4e-X\	.	.	.
.	.	.	.	.	.	4d\	.	4b-\	-ti
.	.	.	.	.	.	4c\	.	4a\	cap-
!	!	!	!	!	!	!LO:TX:a:t=P:problem=♭ above	!	!	!
2GG/	.	2GG/	.	2G/	.	2B-X/	.	4b-\	-ti-
.	.	.	.	.	.	.	.	4g/	-vi-
!LO:LB:g=original	!	!	!	!	!	!	!	!	!
=76	=76	=76	=76	=76	=76	=76	=76	=76	=76
1.AA	.	1.AA	.	[1.F	.	2A,</	-cob	1cc	-ta-
!	!	!	!	!	!	!LO:LB:g=original	!	!	!
=-	=-	=-	=-	=-	=-	=-	=-	=-	=-
.	.	.	.	.	.	2c/	Ja-	.	.
.	.	.	.	.	.	[<2f\	.	2cc\	-tem
=77	=77	=77	=77	=77	=77	=77	=77	=77	=77
!	!	!	!	!	!	!LO:N:xstem	!	!	!
1.BB-	.	1.BB-	.	1.F]	.	4f\]	.	2.dd\	Ja-
!	!	!	!	!	!	!LO:TX:a:t=P:problem=♭ above	!	!	!
.	.	.	.	.	.	4e-X\	.	.	.
.	.	.	.	.	.	1d	.	.	.
.	.	.	.	.	.	.	.	4cc\	.
.	.	.	.	.	.	.	.	4b-\	.
.	.	.	.	.	.	.	.	4a\	.
=78	=78	=78	=78	=78	=78	=78	=78	=78	=78
2C/	.	2C/	.	2c\	.	2e-X\	.	(1g	.
1D	.	1D	.	1A	.	1d	.	.	.
.	.	.	.	.	.	.	.	2f#X/)	.
=79	=79	=79	=79	=79	=79	=79	=79	=79	=79
!LO:N:vis=0GG;	!	!	!	!LO:N:acc=#	!	!	!	!	!
1.GG;	-cob.	1.GG;	-cob.	1.Bn;,<	-cob.	1.d;	-cob.	1.g;	-cob.
!	!	!LO:LB:g=original	!	!	!	!	!	!	!
=80||	=80||	=80||	=80||	=80||	=80||	=80||	=80||	=80||	=80||
!	!	!LO:TX:a:i:t=T.	!	!	!	!	!	!	!
2.E-X\	Glo-	2.E-X\	Glo-	2.B-X\	Glo-	2.e-X\	Glo-	2.g/	Glo-
4E-\	-ri-	4E-\	-ri-	4B-\	-ri-	4e-\	-ri-	4g/	-ri-
2E-\	-a	2E-\	-a	2B-\	-a	2e-\	-a	2g/	-a
=81	=81	=81	=81	=81	=81	=81	=81	=81	=81
!	!	!LO:TX:a:t=P:problem=♭ above	!	!	!	!	!	!	!
2E-X\	Pa-	2E-X\	Pa-	2B-\	Pa-	2e-X\	Pa-	2g/	Pa-
2D,<\	-tri	2D/	-tri	2B-\	-tri	2f\	-tri	2b-\	-tri
2E-\	et	2E-\	et	2B-\	et	2e-X\	et	2g/	et
!	!	!	!	!	!	!	!	!LO:LB:g=original	!
=82	=82	=82	=82	=82	=82	=82	=82	=82	=82
2.BB-/	Fi-	2.BB-/	Fi-	2.B-\	Fi-	2.d\	Fi-	2.f/	Fi-
4BB-/	-li-	4BB-/	-li-	4B-\	-li-	4d\	-li-	4f/	-li-
2BB-/	-o	2BB-/	-o	2B-\	-o	2d\	-o	2f/	-o
=83	=83	=83	=83	=83	=83	=83	=83	=83	=83
!	!	!	!	!	!	!	!	!LO:TX:a:t=P:problem=♭ above	!
2B-\	et	2B-\	et	2d\	et	2f\	et	2b-X\	et
!	!	!	!	!LO:TX:a:t=P:problem=♮ above	!	!	!	!	!
4A\	Spi-	4A\	Spi-	4cn\	Spi-	4f\	Spi-	4cc\	Spi-
4A\	-ri-	4A\	-ri-	4c\	-ri-	4f\	-ri-	4cc\	-ri-
4B-\	-tu-	4B-\	-tu-	4d\	-tu-	4f\	-tu-	4b-\	-tu-
4B-\	-i	4B-\	-i	4d\	-i	4f\	-i	4b-\	-i
!LO:LB:g=original	!	!	!	!LO:LB:g=original	!	!	!	!	!
=84	=84	=84	=84	=84	=84	=84	=84	=84	=84
1F	San-	1F	San-	1A	San-	1f	San-	1cc	San-
2F\	-cto.	2F\	-cto	2A/	-cto	2f\	-cto	2cc\	-cto
!	!	!	!	!	!	!LO:LB:g=original	!	!	!
=85	=85	=85	=85	=85	=85	=85	=85	=85	=85
!	!	!	!	!	!	!LO:TX:a:t=1.	!	!LO:TX:a:t=2	!
4F\	Si-	4F\	Si-	4A/	Si-	1.r	.	0.r	.
4F\	-cut	4F\	-cut	4A/	-cut	.	.	.	.
4B-\	e-	4B-\	e-	4d\	e-	.	.	.	.
4B-\	-rat	4B-\	-rat	4d\	-rat	.	.	.	.
4F\	in	4F\	in	4A/	in	.	.	.	.
4F\	prin-	4F\	prin-	4A/	prin-	.	.	.	.
=86	=86	=86	=86	=86	=86	=86	=86	=86	=86
2.G\	-ci-	2.G\	-ci-	2.B-\	-ci-	4d\	Si-	.	.
.	.	.	.	.	.	4d\	-cut	.	.
.	.	.	.	.	.	4g\	e-	.	.
4G\	-pi-	4G\	-pi-	4B-\	-pi-	4g\	-rat	.	.
2G\	-o	2G\	-o	2B-\	-o	4d\	in	.	.
.	.	.	.	.	.	4d\	prin-	.	.
=87	=87	=87	=87	=87	=87	=87	=87	=87	=87
1.C	et	1.C	et	1.c	et	2.e-X\	-ci-	4g/	Si-
.	.	.	.	.	.	.	.	4g/	-cut
.	.	.	.	.	.	.	.	4cc\	e-
.	.	.	.	.	.	4e-\	-pi-	4cc\	-rat
.	.	.	.	.	.	2e-\	-o	4g/	in
.	.	.	.	.	.	.	.	4g/	prin-
=88	=88	=88	=88	=88	=88	=88	=88	=88	=88
1.F	nunc	1.F	nunc	1.c	nunc	2f\	Et	4.a-X\	-ci-
.	.	.	.	.	.	.	.	8a-\	-pi-
.	.	.	.	.	.	2f\	nunc	4a-\	-o
.	.	.	.	.	.	.	.	4a-\	et
.	.	.	.	.	.	2f\	et	2a-X\	nunc
=89	=89	=89	=89	=89	=89	=89	=89	=89	=89
2G\	et	2G\	et	2B-\	et	1e-X	sem-	2g/	et
1A-X	sem-	1A-X	ſem-	1c	sem-	.	.	(2g/	ſem-
.	.	.	.	.	.	2c/	.	2f#X/)	.
!	!	!LO:LB:g=original	!	!	!	!	!	!	!
=90	=90	=90	=90	=90	=90	=90	=90	=90	=90
2G,<\	-per	2G\	-per	2Bn\	-per	2d,<\	-per	2g/	-per
!	!	!	!	!	!	!	!	!LO:LB:g=original	!
=-	=-	=-	=-	=-	=-	=-	=-	=-	=-
(2G\	et	2G\	et	(4B-X\	et-	2d\	et	(4g/	et
.	.	.	.	4G/)	.	.	.	4b-X\)	.
2F#X\)	in	2F#X\	in	(4A/	-in	2d\	in	2a\	in
.	.	.	.	4d\)	.	.	.	.	.
=91	=91	=91	=91	=91	=91	=91	=91	=91	=91
!	!	!	!	!LO:TX:a:t=P:problem=♭ above	!	!	!	!	!
2G\	sae-	2G\	sae-	2.B-X\	sae-	(1d	sae-	2b-\	ſae-
!LO:TX:t=76	!	!	!	!	!	!	!	!	!
2.E-X\	.	2.E-X\	.	.	.	.	.	(<2.g/	.
.	.	.	.	(>4A/	.	.	.	.	.
.	.	.	.	4G/)	.	4.c/)	.	.	.
4E-\	-cu-	4E-\	-cu-	4G/	-cu-	.	.	4g/)	-cu-
.	.	.	.	.	.	8c/	-cu-	.	.
!LO:LB:g=original	!	!	!	!	!	!	!	!	!
=92	=92	=92	=92	=92	=92	=92	=92	=92	=92
1D,<	-la	1D,<	-la	2A/	-la	1d	-la	1f#X	-la
!	!	!	!	!LO:LB:g=original	!	!	!	!	!
=-	=-	=-	=-	=-	=-	=-	=-	=-	=-
.	.	.	.	4d\	sae-	.	.	.	.
.	.	.	.	4d\	-cu-	.	.	.	.
4G\	sae-	4G\	sae-	4d\	-lo-	2r	.	2r	.
4G\	-cu-	4G\	-cu-	4c\	-rum	.	.	.	.
=93	=93	=93	=93	=93	=93	=93	=93	=93	=93
!	!	!	!	!	!	!	!	!LO:TX:a:t=1.	!
4G\	-lo-	4G\	-lo-	4B-X\	a-	4g\	ſae-	1.r	.
4F\	-rum	4F\	-rum	4A\	.	4g\	-cu-	.	.
4E-X\	a-	4E-X\	a-	4G\	.	4g\	-lo-	.	.
4D\	.	4D\	.	8A\L	.	4f\	-rum	.	.
.	.	.	.	8B-\J	.	.	.	.	.
4C/	.	4C\	.	4c\	.	(4e-X\	a-	.	.
8D/L	.	8D\L	.	4B-\	.	4d\)	.	.	.
8E-X/J	.	8E-X\J	.	.	.	.	.	.	.
!	!	!	!	!	!	!LO:LB:g=original	!	!	!
=94	=94	=94	=94	=94	=94	=94	=94	=94	=94
4F\	.	4F\	.	4A/	.	4c\	.	2r	.
4E-X\	.	4E-X\	.	4G/	.	8d\L	.	.	.
.	.	.	.	.	.	8e-X\J	.	.	.
4D/	.	4D/	.	4F/	.	4f\	.	4dd\	sae-
4C/	.	4C/	.	8G/L	.	4e-X\	.	4dd\	-cu-
.	.	.	.	8A/J	.	.	.	.	.
4BB-/	.	4BB-/	.	4B-\	.	4d\	.	4dd\	-lo-
!	!	!	!	!	!	!LO:TX:a:t=P:problem=♭ above	!	!	!
4AA/	.	4AA/	.	4c\	.	8e-X\L	.	4cc\	-rum
.	.	.	.	.	.	8f\J	.	.	.
=95	=95	=95	=95	=95	=95	=95	=95	=95	=95
1GG	.	1GG	.	2d\	.	2g\	.	(4b-\	a-
.	.	.	.	.	.	.	.	4a\)	.
.	.	.	.	2B-\	.	2d\	.	4g\	.
.	.	.	.	.	.	.	.	(8a\L	.
.	.	.	.	.	.	.	.	8b-\J)	.
2AA/	-men	2AA/	-men	2F/	-men	2c/	-men	2cc\	-men
=96	=96	=96	=96	=96	=96	=96	=96	=96	=96
2BB-/	a-	2BB-/	a-	1.F	a-	2d\	a-	(1b-	a-
2F\	.	2F\	.	.	.	1c	.	.	.
2FF/	.	2FF/	.	.	.	.	.	2a\)	.
=97	=97	=97	=97	=97	=97	=97	=97	=97	=97
1.BB-	-men	1.BB-	-men	2F,</	-men	1.d	-men.	2b-,<\	-men
.	.	.	.	4B-\	sae-	.	.	4dd\	sae-
.	.	.	.	4B-\	-cu-	.	.	4dd\	-cu-
.	.	.	.	4B-\	-lo-	.	.	4dd\	-lo-
.	.	.	.	4A\	-rum	.	.	4cc\	-rum
!	!	!LO:LB:g=original	!	!	!	!	!	!LO:LB:g=original	!
=98	=98	=98	=98	=98	=98	=98	=98	=98	=98
!	!	!LO:TX:a:t=1.	!	!	!	!LO:TX:a:t=1.	!	!	!
1.r	.	1.r	.	4G/	a-	1.r	.	4b-\	a-
.	.	.	.	4F/	.	.	.	4a\	.
.	.	.	.	4E/	.	.	.	4g\	.
.	.	.	.	8F/L	.	.	.	8a\L	.
.	.	.	.	8G/J	.	.	.	8b-\J	.
.	.	.	.	4A/	.	.	.	4cc\	.
.	.	.	.	4G/	.	.	.	4b-\	.
!LO:LB:g=original	!	!	!	!LO:LB:g=original	!	!	!	!	!
=99	=99	=99	=99	=99	=99	=99	=99	=99	=99
4D/	sae-	4D/	sae-	1F	.	4f\	sae-	2a\	.
4D/	-cu-	4D/	-cu-	.	.	4f\	-cu-	.	.
4D/	-lo-	4D/	-lo-	.	.	4f\	-lo-	2a\	-men
4C,</	-rum	4C/	-rum	.	.	4e-X\	-rum	.	.
4BB-/	a-	4BB-/	a-	2F/	-men	4d\	a-	4b-\	a-
4AA/	.	4AA/	.	.	.	4c/	.	4cc\	.
=100	=100	=100	=100	=100	=100	=100	=100	=100	=100
4GG/	.	4GG/	.	4G/	a-	4B-/	.	2dd\	.
8AA/L	.	8AA/L	.	4F/	.	4A/	.	.	.
8BB-/J	.	8BB-/J	.	.	.	.	.	.	.
4C/	.	4C/	.	4E/	.	4G/	.	1cc	.
4BB-/	.	4BB-/	.	8F/L	.	(8A/L	.	.	.
.	.	.	.	8G/J	.	8B-/J)	.	.	.
2AA/	.	2AA/	.	2A/	.	2c/	.	.	.
=101	=101	=101	=101	=101	=101	=101	=101	=101	=101
!	!	!	!	!LO:TX:a:t=P:problem=♮ above	!	!	!	!	!
4BB-/	.	4BB-/	.	4Fn/	.	4d\	.	2b-\	-men
4GG/	.	4GG/	-men	4G/	-men	4d\	-men	.	.
1D	.	1D	a-	2G/	a-	1d	a-	1a	a-
.	.	.	.	2F#X/	.	.	.	.	.
=102	=102	=102	=102	=102	=102	=102	=102	=102	=102
!LO:N:vis=0GG;	!	!	!	!	!	!	!	!	!
!LO:TX:b:i:t=O. ad M. D G(loria)m	!	!LO:TX:b:i:t=O. ad M. D. G.	!	!LO:TX:b:i:t=O. ad M. D. G.	!	!LO:TX:b:i:t=O. ad M. D. G.	!	!LO:TX:b:i:t=O. ad M. D. G.	!
1.GG;	-men.	1.GG	-men.	1.G	-men.	1.Bn	-men.	1.g	-men.
==	==	==	==	==	==	==	==	==	==
*-	*-	*-	*-	*-	*-	*-	*-	*-	*-
!!!system-decoration: [(s1,s2,s3,s4,s5)]
!!!RDF**kern: < = below
!!!RDF**kern: > = above
!!!ENC: Andrzej Gręziak
!!!END: 2024-04-16
!!!EED: Marta Chmielewska
!!!EEV: 2024-05-31
